X:51
T:parsal y fesur
R:miniwet
Z:crm
M:3/4
L:1/4
Q:1/4=340
K:Em
DE|{A}EDE|FGA|B2B|AGB|A2A|GFA|GAG|FED|E2E|FGA|B2B|AGB|AGF|EFG|E3|zDE|
{A}EDE|FGA|B2B|AGB|A2A|GFA|GAG|FED|E2E|FGA|B2B|AGB|AGF|EFG|E3|zGA||
BGE|BGE|AFD|AFD|BGE|BGE|AFD|AFD|EGF|ED2|EGF|ED2|E2E|FGA|B2B|AGB|AGF|EFG|E3|zGA|
BGE|BGE|AFD|AFD|BGE|BGE|AFD|AFD|EGF|ED2|EGF|ED2|E2E|FGA|B2B|AGB|AGF|EFG|E3z||
